icons/comment-ai-24.svg

<svg width="24" height="24" viewBox="0 0 24 24" xmlns="http://www.w3.org/2000/svg">
<path d="M11.25 2.5C11.6642 2.5 12 2.83579 12 3.25C12 3.66421 11.6642 4 11.25 4H3.25C3.1837 4 3.12013 4.02636 3.07324 4.07324C3.02636 4.12013 3 4.1837 3 4.25V16.75C3 16.888 3.112 17 3.25 17H5.75C5.9489 17 6.13962 17.079 6.28027 17.2197C6.42091 17.3603 6.5 17.5511 6.5 17.75V20.9453L10.2432 17.2197C10.3837 17.079 10.5746 17.0002 10.7734 17H20.75C20.8163 17 20.8799 16.9737 20.9268 16.9268C20.9737 16.8799 21 16.8163 21 16.75V12.25C21 11.8358 21.3358 11.5 21.75 11.5C22.1642 11.5 22.5 11.8358 22.5 12.25V16.75C22.5 17.2141 22.3155 17.6591 21.9873 17.9873C21.6591 18.3155 21.2141 18.5 20.75 18.5H11.0664L7.4873 22.0703C7.28357 22.274 7.02374 22.4126 6.74121 22.4688C6.45864 22.5249 6.16558 22.4959 5.89941 22.3857C5.63344 22.2755 5.40617 22.0889 5.24609 21.8496C5.08599 21.6101 5.0001 21.3281 5 21.04V18.5H3.25C2.78588 18.5 2.34088 18.3155 2.0127 17.9873C1.68451 17.6591 1.5 17.2141 1.5 16.75V4.25C1.5 3.284 2.284 2.5 3.25 2.5H11.25ZM17.748 1C17.8169 1.00006 17.884 1.0212 17.9404 1.06055C17.997 1.10012 18.0407 1.15681 18.0645 1.22168L18.3867 2.10156C18.6392 2.79135 19.0392 3.41809 19.5586 3.9375C20.078 4.45687 20.7047 4.85692 21.3945 5.10938L22.2744 5.43164C22.3391 5.45538 22.3951 5.49818 22.4346 5.55469C22.4741 5.6113 22.4951 5.67898 22.4951 5.74805C22.4951 5.81693 22.474 5.88394 22.4346 5.94043C22.395 5.99702 22.3393 6.04072 22.2744 6.06445L21.3945 6.38672C20.7046 6.63934 20.0781 7.0391 19.5586 7.55859C19.0391 8.07809 18.6393 8.70465 18.3867 9.39453L18.0645 10.2744C18.0407 10.3393 17.997 10.395 17.9404 10.4346C17.8839 10.474 17.8169 10.4951 17.748 10.4951C17.679 10.4951 17.6113 10.4741 17.5547 10.4346C17.4982 10.3951 17.4554 10.3391 17.4316 10.2744L17.1094 9.39453C16.8568 8.70478 16.4569 8.07803 15.9375 7.55859C15.4181 7.0392 14.7913 6.63935 14.1016 6.38672L13.2217 6.06445C13.1568 6.04073 13.1001 5.99704 13.0605 5.94043C13.0212 5.88398 13.0001 5.81686 13 5.74805C13 5.67903 13.021 5.61127 13.0605 5.55469C13.1001 5.49808 13.1568 5.45536 13.2217 5.43164L14.1016 5.10938C14.7914 4.85687 15.418 4.45695 15.9375 3.9375C16.457 3.41805 16.8569 2.79142 17.1094 2.10156L17.4316 1.22168C17.4554 1.15681 17.4981 1.10012 17.5547 1.06055C17.6113 1.02103 17.679 1 17.748 1Z" />
</svg>

<svg xmlns="http://www.w3.org/2000/svg" width="24" height="24" viewBox="0 0 24 24"><path d="M11.25 2.5a.75.75 0 0 1 0 1.5h-8a.25.25 0 0 0-.25.25v12.5c0 .138.112.25.25.25h2.5c.199 0 .39.079.53.22.141.14.22.331.22.53v3.195l3.743-3.725a.75.75 0 0 1 .53-.22h9.977a.25.25 0 0 0 .25-.25v-4.5a.75.75 0 0 1 1.5 0v4.5c0 .464-.184.909-.513 1.237a1.746 1.746 0 0 1-1.237.513h-9.684l-3.579 3.57a1.45 1.45 0 0 1-1.588.316A1.456 1.456 0 0 1 5 21.04V18.5H3.25a1.75 1.75 0 0 1-1.75-1.75V4.25c0-.966.784-1.75 1.75-1.75h8ZM17.748 1a.33.33 0 0 1 .192.061.33.33 0 0 1 .124.161l.323.88a5.051 5.051 0 0 0 3.008 3.007l.879.323a.332.332 0 0 1 .221.316.336.336 0 0 1-.221.316l-.879.323a5.034 5.034 0 0 0-1.836 1.172 5.034 5.034 0 0 0-1.172 1.836l-.323.879a.334.334 0 0 1-.316.221.332.332 0 0 1-.316-.221l-.323-.879a5.045 5.045 0 0 0-3.007-3.008l-.88-.323a.337.337 0 0 1 0-.632l.88-.323a5.062 5.062 0 0 0 1.836-1.171 5.062 5.062 0 0 0 1.171-1.836l.323-.88A.333.333 0 0 1 17.748 1Z"/></svg>
